icons/njk.svg

<svg width="16" height="16" viewBox="0 0 16 16" fill="none" xmlns="http://www.w3.org/2000/svg">
<path d="M10.0597 11.2681H11.3159V5.37707H12.9992V11.9011C13.0075 12.112 12.9503 12.3201 12.8359 12.4953C12.6972 12.7158 12.4886 12.8802 12.2455 12.9604C12.0966 12.9905 11.945 13.0035 11.7933 12.9992H9.39397C9.19216 12.9986 8.99518 12.9356 8.82869 12.8183C8.62767 12.67 8.48152 12.4559 8.41415 12.2111C8.38924 12.0312 8.38924 11.8485 8.41415 11.6685V9.84698L10.0974 9.4465V11.2681H10.0597ZM3 3H4.65816C5.06014 4.3694 5.46212 5.72587 5.91435 7.08235C5.91435 5.79047 5.91435 4.3694 5.91435 3H7.54738V12.9992H5.88922C5.47468 11.5523 5.0727 10.0924 4.63304 8.64553V12.9992H3V3Z" fill="#6EAF5D"/>
</svg>

<svg xmlns="http://www.w3.org/2000/svg" width="16" height="16" fill="none"><path fill="#6EAF5D" d="M10.06 11.268h1.256v-5.89h1.683V11.9c.008.211-.049.42-.163.594a1.11 1.11 0 0 1-.59.465c-.15.03-.301.043-.453.04H9.394a.986.986 0 0 1-.565-.182 1.124 1.124 0 0 1-.415-.607 1.98 1.98 0 0 1 0-.543V9.848l1.683-.4v1.821h-.037ZM3 3h1.658c.402 1.37.804 2.726 1.256 4.082V3h1.633v10H5.89c-.414-1.448-.816-2.908-1.256-4.354v4.353H3V3Z"/></svg>
